logos/dbt.svg

<?xml version="1.0" encoding="UTF-8"?>
<svg width="512px" height="196px" viewBox="0 0 512 196" version="1.1" xmlns="http://www.w3.org/2000/svg" xmlns:xlink="http://www.w3.org/1999/xlink" preserveAspectRatio="xMidYMid">
    <title>dbt</title>
    <g>
        <path d="M334.734481,30.2215133 L334.734481,163.655956 L307.692579,163.655956 L307.692579,150.047262 C304.86481,154.819068 300.801249,158.70736 295.851567,161.181549 C290.550042,163.832529 284.540489,165.246413 278.533108,165.246413 C271.109671,165.423203 263.686233,163.302376 257.500759,159.060722 C251.139364,154.819068 246.189682,148.986957 243.007898,142.094323 C239.474273,134.141168 237.706374,125.658077 237.882295,116.997979 C237.706374,108.338098 239.474273,99.8547904 243.007898,92.0786419 C246.189682,85.3625811 251.139364,79.5304698 257.324838,75.4656056 C263.686233,71.4007415 271.109671,69.4564872 278.533108,69.6332771 C284.364568,69.6332771 290.196028,70.8703718 295.321631,73.5213513 C300.271314,75.9957581 304.334875,79.7070424 307.162644,84.3022762 L307.162644,39.2349738 L334.734481,30.2215133 Z M302.215133,137.322517 C305.748759,132.727283 307.692579,126.01144 307.692579,117.351559 C307.692579,108.691461 305.926852,102.152407 302.215133,97.5573907 C298.503415,92.9621569 292.669783,90.3111775 286.662402,90.4879674 C280.652849,90.1343876 274.821389,92.7853671 270.931578,97.3806008 C267.222031,101.975617 265.276039,108.514888 265.276039,116.997979 C265.276039,125.658077 267.222031,132.373921 270.931578,137.145727 C274.643296,141.917534 280.652849,144.568513 286.662402,144.39194 C293.377811,144.39194 298.679336,141.917534 302.215133,137.322517 Z M431.408574,75.2888157 C437.769969,79.3536799 442.719651,85.1860084 445.723342,91.901852 C449.256967,99.6782177 451.024866,108.161309 450.848945,116.821406 C451.024866,125.481287 449.256967,134.141385 445.723342,141.917534 C442.541558,148.810167 437.594048,154.642496 431.230481,158.88415 C425.045007,162.949014 417.621569,165.069841 410.200304,164.893051 C404.190751,165.069841 398.181198,163.655956 392.879674,160.828187 C387.932163,158.35378 383.86643,154.465706 381.214582,149.693899 L381.214582,163.479166 L353.998931,163.479166 L353.998931,39.2349738 L381.392675,30.2215133 L381.392675,84.6556388 C384.042351,79.8838323 388.108084,75.9957581 393.055595,73.5213513 C398.359291,70.6937992 404.190751,69.2799145 410.200304,69.4564872 C417.621569,69.2799145 425.045007,71.4007415 431.408574,75.2888157 Z M417.975583,137.145727 C421.687302,132.373921 423.455201,125.658077 423.455201,116.821406 C423.455201,108.338098 421.687302,101.798828 417.975583,97.2038109 C414.263865,92.6087944 409.138261,90.3111775 402.422852,90.3111775 C396.415471,89.9578149 390.581839,92.6087944 386.6942,97.3806008 C382.982481,102.152407 381.214582,108.691461 381.214582,117.174769 C381.214582,125.834867 382.982481,132.550711 386.6942,137.145727 C390.405918,141.917534 396.237378,144.568513 402.422852,144.21515 C408.432405,144.568513 414.263865,141.917534 417.975583,137.145727 Z M488.669817,92.2552146 L488.669817,127.955477 C488.669817,133.080863 490.083702,136.792365 492.559629,139.089764 C495.387398,141.564171 499.096945,142.801266 502.986757,142.624476 C505.990447,142.624476 509.172231,142.094323 512,141.387381 L512,162.595434 C506.874397,164.362898 501.572872,165.246413 496.269176,165.069841 C484.96027,165.069841 476.298869,161.888492 470.289316,155.526011 C464.281935,149.163747 461.276073,140.150286 461.276073,128.485846 L461.276073,50.1924714 L488.669817,41.3558008 L488.669817,71.7541041 L512,71.7541041 L512,92.2552146 L488.669817,92.2552146 L488.669817,92.2552146 Z" fill="#262A38"></path>
        <path d="M187.161409,8.1297717 C191.756425,12.5481287 194.760984,18.3803487 195.467927,24.7427645 C195.467927,27.393744 194.760984,29.1612084 193.17031,32.5191302 C191.579853,35.877052 171.962257,69.8100669 166.130146,79.17689 C162.772224,84.6556388 161.004759,91.1949097 161.004759,97.5571735 C161.004759,104.096444 162.772224,110.458925 166.130146,115.937674 C171.962257,125.304497 191.579853,159.414085 193.17031,162.772224 C194.760984,166.130146 195.467927,167.720603 195.467927,170.371582 C194.760984,176.734064 191.933215,182.566392 187.338199,186.808046 C182.919755,191.403063 177.087643,194.407622 170.901952,194.937774 C168.250973,194.937774 166.483508,194.230832 163.302376,192.640157 C160.121027,191.049483 125.481287,171.962257 116.114247,166.130146 C115.407305,165.776566 114.700362,165.246413 113.816847,164.892834 L67.5124501,137.49909 C68.572755,146.33576 72.4610464,154.819068 78.8233102,161.004759 C80.0606222,162.241854 81.297717,163.302376 82.7116017,164.362681 C81.6510796,164.892834 80.4139848,165.423203 79.3536799,166.130146 C69.9866396,171.962257 35.877052,191.579853 32.5191302,193.17031 C29.1612084,194.760984 27.5705339,195.467927 24.7427645,195.467927 C18.3803487,194.760984 12.5481287,191.933215 8.30649642,187.338199 C3.71141468,182.919755 0.70693582,177.087643 0,170.725162 C0.176734064,168.074183 0.883671403,165.423203 2.29755173,163.125586 C3.88816113,159.767665 23.5056698,125.65786 29.3377811,116.291037 C32.6959201,110.812288 34.4631674,104.449807 34.4631674,97.9107533 C34.4631674,91.3714824 32.6959201,85.0090014 29.3377811,79.5302526 C23.5056698,69.8100669 3.71141468,35.7002622 2.29755173,32.3423404 C0.883671403,30.0447235 0.176734064,27.393744 0,24.7427645 C0.70693582,18.3803487 3.53468996,12.5481287 8.1297717,8.1297717 C12.5481287,3.53468996 18.3803487,0.70693582 24.7427645,0 C27.393744,0.176734064 30.0447235,0.883671403 32.5191302,2.29755173 C35.3468996,3.53468996 60.2662368,18.0268775 73.5213513,25.8032866 L76.5259105,27.5705339 C77.5862154,28.2774762 78.4699477,28.8076287 79.17689,29.1612084 L80.5907747,30.0447235 L127.778687,57.9688371 C126.718382,47.3647021 121.239633,37.6442993 112.756325,31.1052456 C113.816847,30.5750931 115.053942,30.0447235 116.114247,29.3377811 C125.481287,23.5056698 159.590875,3.71141468 162.948797,2.29755173 C165.246413,0.883671403 167.897393,0.176734064 170.725162,0 C176.910853,0.70693582 182.743182,3.53468996 187.161409,8.1297717 Z M100.208153,110.282136 L110.282136,100.208153 C111.69602,98.7942683 111.69602,96.6736585 110.282136,95.2597738 L100.208153,85.1857912 C98.7942683,83.7719066 96.6736585,83.7719066 95.2597738,85.1857912 L85.1857912,95.2597738 C83.7719066,96.6736585 83.7719066,98.7942683 85.1857912,100.208153 L95.2597738,110.282136 C96.4968686,111.51923 98.7942683,111.51923 100.208153,110.282136 Z" fill="#FF694A"></path>
    </g>
</svg>

<svg preserveAspectRatio="xMidYMid" viewBox="0 0 512 196" xmlns="http://www.w3.org/2000/svg">
  <path fill="#262A38" d="M334.734 30.222v133.434h-27.041v-13.609c-2.828 4.772-6.892 8.66-11.841 11.135-5.302 2.65-11.312 4.064-17.319 4.064-7.423.177-14.847-1.944-21.032-6.185-6.362-4.242-11.311-10.074-14.493-16.967-3.534-7.953-5.302-16.436-5.126-25.096a57.318 57.318 0 0 1 5.126-24.92c3.182-6.715 8.131-12.548 14.317-16.612 6.361-4.065 13.785-6.01 21.208-5.833 5.832 0 11.663 1.237 16.789 3.888 4.95 2.475 9.013 6.186 11.84 10.781V39.235l27.572-9.013Zm-32.519 107.1c3.534-4.595 5.478-11.31 5.478-19.97 0-8.66-1.766-15.2-5.478-19.795-3.712-4.595-9.545-7.246-15.553-7.069-6.01-.354-11.84 2.297-15.73 6.893-3.71 4.595-5.656 11.134-5.656 19.617 0 8.66 1.946 15.376 5.656 20.148 3.711 4.772 9.72 7.423 15.73 7.246 6.716 0 12.017-2.474 15.553-7.07ZM431.41 75.29a38.305 38.305 0 0 1 14.314 16.613 57.32 57.32 0 0 1 5.126 24.92c.176 8.66-1.592 17.32-5.126 25.096-3.181 6.892-8.129 12.724-14.493 16.966-6.185 4.065-13.608 6.186-21.03 6.01a34.759 34.759 0 0 1-17.32-4.066c-4.948-2.474-9.014-6.362-11.665-11.134v13.785H354V39.235l27.394-9.013v54.434c2.65-4.772 6.715-8.66 11.663-11.135 5.303-2.827 11.135-4.241 17.144-4.065 7.422-.176 14.845 1.945 21.209 5.833Zm-13.433 61.857c3.711-4.772 5.48-11.488 5.48-20.325 0-8.483-1.769-15.022-5.48-19.617-3.712-4.595-8.838-6.893-15.553-6.893-6.008-.353-11.841 2.298-15.729 7.07-3.712 4.771-5.48 11.31-5.48 19.794 0 8.66 1.768 15.376 5.48 19.97 3.712 4.773 9.543 7.424 15.729 7.07 6.01.354 11.84-2.297 15.553-7.07Zm70.694-44.89v35.7c0 5.125 1.414 8.836 3.89 11.134 2.827 2.474 6.537 3.711 10.427 3.534 3.003 0 6.185-.53 9.013-1.237v21.208c-5.126 1.768-10.427 2.651-15.73 2.475-11.31 0-19.971-3.182-25.98-9.544-6.008-6.362-9.014-15.376-9.014-27.04V50.192l27.394-8.836v30.398H512v20.501h-23.33Z"/>
  <path fill="#FF694A" d="M187.161 8.13c4.595 4.418 7.6 10.25 8.307 16.613 0 2.65-.707 4.418-2.298 7.776-1.59 3.358-21.208 37.291-27.04 46.658-3.358 5.479-5.125 12.018-5.125 18.38 0 6.54 1.767 12.902 5.125 18.38 5.832 9.367 25.45 43.477 27.04 46.835 1.591 3.358 2.298 4.949 2.298 7.6-.707 6.362-3.535 12.194-8.13 16.436-4.418 4.595-10.25 7.6-16.436 8.13-2.651 0-4.418-.707-7.6-2.298-3.181-1.59-37.82-20.678-47.188-26.51-.707-.353-1.414-.884-2.297-1.237l-46.305-27.394c1.06 8.837 4.949 17.32 11.311 23.506a35.35 35.35 0 0 0 3.889 3.358c-1.06.53-2.298 1.06-3.358 1.767-9.367 5.832-43.477 25.45-46.835 27.04-3.358 1.591-4.948 2.298-7.776 2.298-6.363-.707-12.195-3.535-16.437-8.13-4.595-4.418-7.6-10.25-8.306-16.613.177-2.65.884-5.302 2.298-7.6 1.59-3.357 21.208-37.467 27.04-46.834 3.358-5.479 5.125-11.841 5.125-18.38 0-6.54-1.767-12.902-5.125-18.38C23.506 69.81 3.71 35.7 2.298 32.341.884 30.045.177 27.394 0 24.742.707 18.38 3.535 12.549 8.13 8.13 12.548 3.535 18.38.707 24.743 0c2.65.177 5.302.884 7.776 2.298 2.828 1.237 27.747 15.729 41.002 23.505l3.005 1.768c1.06.706 1.944 1.237 2.65 1.59l1.415.884 47.188 27.924c-1.06-10.604-6.54-20.325-15.023-26.864 1.06-.53 2.298-1.06 3.358-1.767 9.367-5.832 43.477-25.627 46.835-27.04C165.246.884 167.897.177 170.725 0a27.056 27.056 0 0 1 16.436 8.13Zm-86.953 102.152 10.074-10.074c1.414-1.414 1.414-3.534 0-4.948l-10.074-10.074c-1.414-1.414-3.534-1.414-4.948 0L85.186 95.26c-1.414 1.414-1.414 3.534 0 4.948l10.074 10.074c1.237 1.237 3.534 1.237 4.948 0Z"/>
</svg>
